X:224
T:The Galtee Ranger
T:The Humours of Galteemore
T:Callaghan's
M:4/4
L:1/8
R:reel
D:Cherish the Ladies: At Home
Z:id:hn-reel-46
K:D
|:AF~F2 FEDE|~F3E F2dB|AF~F2 FEDE|1 FBBA FEEF:|2 F2EG FDD2||
|:~A3B AF~F2|ABde fe~e2|fedc BcdB|ABde fedB:|
